co/heading_h3.svg

<svg viewBox="0 0 24 24" fill="none" xmlns="http://www.w3.org/2000/svg" height="1em" width="1em">
  <path d="M10 4V11H4V4H2V20H4V13H10V20H12V4H10Z" fill="black"/>
  <path d="M21.7287 10L21.7309 8H14.5V10H18.8784L15.7018 13.2829L17.1087 14.7984C17.3649 14.6798 17.6555 14.6122 17.9634 14.6122C19.0032 14.6122 19.8471 15.3802 19.8471 16.3265C19.8471 17.2728 19.0032 18.0408 17.9634 18.0408C17.0463 18.0408 16.282 17.4442 16.1141 16.6547L14 17.0289C14.3606 18.7216 15.9978 20 17.9634 20C20.1927 20 22 18.3553 22 16.3265C22 14.6348 20.7438 13.2095 19.0323 12.7833L21.7287 10Z" fill="black"/>
</svg>

<svg viewBox="0 0 24 24" fill="none" xmlns="http://www.w3.org/2000/svg" height="1em" width="1em">
  <path d="M10 4v7H4V4H2v16h2v-7h6v7h2V4h-2Zm11.729 6 .002-2H14.5v2h4.378l-3.176 3.283 1.407 1.515c.256-.118.546-.186.854-.186 1.04 0 1.884.768 1.884 1.714 0 .947-.844 1.715-1.884 1.715-.917 0-1.681-.597-1.849-1.386L14 17.029C14.36 18.722 15.998 20 17.963 20 20.193 20 22 18.355 22 16.326c0-1.691-1.256-3.117-2.968-3.543L21.73 10Z" fill="#000"/>
</svg>
